X:1
T:Les Roses d'Ispahan
T:A Mademoiselle Loise Collinet Les Roses d'Ispahan 
T:Gabriel Fauré Op. 39, No. 4 
T:Charles-Marie-René Leconte de Lisle (Original key E major) 
C:Gabriel Fauré
Z:Charles-Marie-René Leconte de Lisle
%%score 1 { ( 2 3 ) | ( 4 5 ) }
L:1/8
Q:1/4=60
M:2/4
K:C
V:1 treble nm="Voice"
V:2 treble nm="Piano"
V:3 treble 
V:4 bass 
V:5 bass 
V:1
"^\n""^Andantino" z4 | z4 | z4 | z4 | z4 | z4 | z2 z"^dolce" E | G2 CD/F/ | GG/C/ CD/F/ | %9
w: ||||||Les|ro- ses d’Is- pa-|han dans leur gaî- ne de|
 G2!<(! !breath!GG/A/!<)! | BA/G/ !breath!E>E | G2- G/D/E/F/ | E4 | z4 | z4 | %15
w: mous- se, Les jas-|mins de Mos- soul, les|fleurs _ de l’or- an-|ger,|||
"^cresc.   poco   a   poco" A^c/B/ A>E | !breath!GA ^c/B/A/E/ | G2 !breath!G2 |!f! c e2 d | %19
w: Ont un par- fum moins|frais, ont une o- deur moins|dou- ce.|O blan- che|
 c/E/!>(! E3!>)! |!p! E/B/ G2 E/D/ | C4 | z4 | z4 | z4 | z2 z!p! G | G2 CD/F/ | GG/C/ CD/F/ | %28
w: Le- ï- lah!|que ton souf- fle lé-|ger!||||Ta|lèvre est de co-|rail et ton ri- re lé-|
 G2- G!<(!G/A/!<)! | BA/G/ E2- | EE G/D/E/F/ | E4 | E2 z2 | z4 | %34
w: ger _ Son- ne|mieux que l’eau vive|_ et d’u- ne voix plus|dou-|ce.||
"^cresc.  poco  a  poco" A^c/B/ A>E | GA ^c/B/A/E/ |!<(! !breath!G4!<)! |!f! cc/e/ d>c | %38
w: Mieux que le vent joy-|eux qui ber- ce l’o- ran-|ger,|Mieux que l’ois- eau qui|
!>(! E3 E!>)! |!p! B>B A(G/^F/) | E4 | E2 z2 | z2!p! _A2 | c/G/ G2 G | FF _B(A/B/) | A(G/A/) G2- | %46
w: chante au|bord d’un nid de _|mous-|se,|O|Le- ï- lah! De-|puis que de leur _|vol lé- * ger|
 !breath!G"^sempre dolce"G G(F/G/) | AE E2- | EG/A/ GF/G/ | (A>_B) A2- | A3 z |!p! A>A GF/E/ | %52
w: _ Tous les bai- *|sers ont fui|_ de ta lè- vre se|dou- * ce|_|Il n’est plus de par-|
 D!courtesy!=C/D/ EF/G/ |!<(! !breath!A4!<)! |"^cresc." c_B/A/ G>A | FF G/A/_B/A/ |!f!!>(! c4!>)! | %57
w: fum dans le pâle o- ran-|ger,|Ni de cé- leste a-|rome aux ro- ses dans leur|mous-|
 c3 z | z4 | z4 | z4 | z2!p! G2 | GC C(D/F/) | !breath!GG C/C/D/F/ |!<(! !breath!G3!<)! A | %65
w: se.||||Oh!|que ton jeune a- *|mour ce pa- pil- lon lé-|ger Re-|
 B/B/A/G/ E>E |!>(! G2 DE/F/!>)! | E4 | E2 z G |"^cresc. poco a poco" A(^c/B/) A>E | GA ^c/B/A/E/ | %71
w: vien- ne vers mon cœur d’une|ai- le promp- teet|dou-|ce, Et|qu’il par- * fume en-|cor la fleur de l’o- ran-|
!<(! !breath!G4!<)! |!f! c e2 d | c/E/ !breath!E3 |"^poco rit." E/!>(!B/ G2 E/D/!>)! | %75
w: ger,|Les ro- ses|d’Is- pa- han|dan leur gaî- ne de|
"^a tempo" C4 | C3 z | z4 | z4 | z4 | !fermata!z4 |] %81
w: mous-|se.|||||
V:2
!p! E4 | E4 | [CDF]4 | [CEG]2 [CDF]2 | [CEG]2 [CDF]2 | [G,CEG]4- | [G,CEG]4- | ([G,CEG]2 [A,CDF]2 | %8
 [G,CEG]2 [A,CDF]2) | [EG]4 | [EG]4 | [CE]2 [DF]2 | [CEG]2 [B,EG]2 | [CEG]2!<(! (!>!B,>C) | %14
 (!>!D>E) (!>!F>G)!<)! | [^CGA]2 [EA]2 | [B,DG] !>![^CGA]2 [EA] | [B,G]4 | [G,C]2 [A,CD]2 | %19
 [_B,CE]2!>(! !>![CE]2!>)! | [B,E]2 [G,B,E]2 |!p! E4 | E4 | [CDF]4 | [CEG]2 [CDF]2 | [CEG]2 D2 | %26
 ([G,CEG]2 [A,CDF]2 | [G,CEG]2 [A,CDF]2) | [EG]4 | [EG]4 | [CE]2 [DF]2 | [CEG]2 [B,EG]2 | %32
 [CEG]2!<(! [G,EG]2 | D>E F>G!<)! | [^CGA]2 [EA]2 | [B,DG] [^CGA]2 [EA] | [B,G]4 | [G,C]2 [A,CD]2 | %38
 [_B,CE]2 !>![CE]2 | ([B,E]2 ^FG) | [^G,^G]4 | [^G,^G]4 | [_A,_A]4 | [G,G]4 | [F,F]4 | E4 | E4 | %47
 E4 | E4 | E4 | [A,F]4 | ([A,DF]2 [_B,DEG]2 | [CDFA]2 [_B,DEG]2) |!<(! [DF]2 [A,F]2!<)! | %54
 ([A,_E^F]2 [_B,EG]2 | [C=FA]2 [_B,_EG]2) | [A,^F]4 | [^F,^F]4 | [G,G]4 | [EG]4 | [CE]4 | %61
 [CE]2 [CDF]2 | ([G,CEG]2 [A,CDF]2 | [G,CEG]2 [A,CDF]2) | [EG]4 | [EG]4 | [CE]2 [DF]2 | %67
 ([CEG]2 [G,EG]2 | D>E F>G) | [^CGA]2 [EA]2 | [B,DG] !>![^CGA]2 [EA] | [B,G]4 | [G,C]2 [A,CD]2 | %73
 [_B,CE]2 [CE]2 |"^poco rit." [B,E]2 [G,B,E]2 |"^a tempo" E4 | E4 | E4 | ([CE]2 [EG]2) | %79
 ([EG]2 [CE]2) | !fermata![G,CE]4 |] %81
V:3
 (!>!C2 DC) | (!>!B,2 CB,) | (!>!A,2 CB,) | !>!G,>A, !>!G,>A, | !>!G,>A, !>!G,>A, | x4 | x4 | x4 | %8
 x4 | (!>!C2 DC) | (!>!B,2 CB,) | (!>!A,2 B,A,) | (!>!G,>A,) (!>!G,>A,) | (!>!G,>A,) [G,EG]2 | %14
 [G,G]2 [G,C]2 | x4 | x4 | (!>!D2 ED) | x4 | x2 (=B,A,) | x4 | (!>!C2 DC) | (!>!B,2 CB,) | %23
 (!>!A,2 B,A,) | (!>!G,>A,) (!>!G,>A,) | (!>!G,>A,) (!>!G,>A,) | x4 | x4 | (!>!C2 DC) | %29
 (!>!B,2 CB,) | (!>!A,2 B,A,) | (!>!G,>A,) (!>!G,>A,) | (!>!G,>A,) !>!B,>C | [G,G]2 [G,C]2 | x4 | %35
 x4 | !>!D2 ED | x4 | x2 (=B,A,) | x2 [CE]2 | (E2 ^FE) | (!>!D2 ED) | (!>!C2 DC) | (_B,2 DC) | %44
 _B,2 DC | (_B,2 DC) | (C2 DC) | (^C2 DC) | (=C2 DC) | (^C2 DC-) | C2 D^C | x4 | x4 | %53
 (A,>=B,) (^C>D) | x4 | x4 | (!>!_E>D !>!=F>E) | (!>!=D>C !>!_E>D) | (!>!C2 DC) | (!>!B,2 CB,) | %60
 (!>!A,2 B,A,) | (!>!G,>A,) (!>!G,>A,) | x4 | x4 | (!>!C2 DC) | (!>!B,2 CB,) | !>!A,2 B,A, | %67
 G,>!<(!A, B,>C!<)! | [G,G]2 [G,C]2 | x4 | x4 | (!>!D2 ED) | x4 | x2 (!>!=B,A,) | x4 | (!>!C2 DC) | %76
 (!>!B,2 CB,) | (!>!_B,2 CB,) | (!>!A,>=B, !>!A,>G,) | (!>!A,>B, !>!A,>F,) | x4 |] %81
V:4
!mf!!p!"^marcato" E,4 | E,4 | (C,, G,,2 G,) | (C,, G,,2 G,) | (C,, G,,2 G,) | (C,, G,,2 G,) | %6
 (C,, G,,2 G,) |!p! (C,, G,,2 G,) | (C,, G,,2 G,) |"^marcato" (C,, G,,2 G,) | (C,, G,,2 G,) | %11
 (C,, G,,2 G,) | (C,, G,,2 G,) | (C,, G,,2 G,) | (!>!E,, G,,2 G,) | z A, ^CA, | z !>!E, A,^C | %17
 z!<(! G,3!<)! |!mf! E,,C, F,,C, | G,,C, A,,C, |!p! (G,2 F,2) |!mf!!p!"^marcato" E,4 | E,4 | %23
 (C,, G,,2 G,) | (C,, G,,2 G,) | (C,, G,,2 G,) | (C,, G,,2 G,) | (C,, G,,2 G,) | (C,, G,,2 G,) | %29
 (C,, G,,2 G,) | (C,, G,,2 G,) | (C,, G,,2 G,) | (C,, G,,2 G,) | (!>!E,, G,,2 G,) | %34
"^cresc.  poco  a  poco" z A, ^CA, | z E, A,^C |!<(! z G,3!<)! |!mf! E,,C, F,,C, | G,,C, A,,C, | %39
 G,2 A,2 | (E,, B,,2 B,) | (E,, B,,2 B,) | (E,, C,2 _A,) |!p! (E,, C,2 E,,) | (D,, C,2 D,,) | E,4 | %46
 E,4 | E,4 | E,4 |!<(! E,4!<)! | (!>!A,,!>(! G,2 A,,)!>)! |!p! (D,, A,,2 A,) | (D,, A,,2 A,) | %53
 (D,, A,,2 A,) |"^cresc." (D,, A,,2 A,) | (D,, A,,2 A,) |!f!"^marcato" (D,, A,,2 A,) | %57
 (^D,, A,,2 A,) | (=E,, G,,2 G,) | (E,, B,,2 G,) |"^dimin." (E,, C,2 E,) | (C,, G,,2 G,) | %62
!p! (C,, G,,2 G,) | (C,, G,,2 G,) | (C,, G,,2 G,) | (C,, G,,2 G,) | (C,, G,,2 G,) | (C,, G,,2 G,) | %68
!<(! (E,, G,,2 G,)!<)! |"^cresc. poco a poco" z A, ^CA, | z E, A,^C | z!<(! G,3!<)! | %72
!mf! E,,C, F,,C, | G,,C, A,,C, |!>(! (G,2 F,2)!>)! |!p! E,4 | E,4 | E,4 | (F,,C,, F,,C,) | %79
 (F,,C,, F,,A,,) | !fermata![C,,C,]4 |] %81
V:5
 (C,, G,,2 G,) | (C,, G,,2 G,) | x4 | x4 | x4 | x4 | x4 | x4 | x4 | x4 | x4 | x4 | x4 | x4 | x4 | %15
 (E,2 G,2 | F,) (E,2 G,) | (F,3 F,,) | (E,,2 F,,2 | G,,2 A,,2) | G,B,, F,G,, | (C,, G,,2 G,) | %22
 (C,, G,,2 G,) | x4 | x4 | x4 | x4 | x4 | x4 | x4 | x4 | x4 | x4 | x4 | (E,2 G,2 | %35
 F,) (!>!E,2 G,) | (F,3 F,,) | (E,,2 F,,2 | G,,2 A,,2) | G,B,, A,B,, | x4 | x4 | x4 | x4 | x4 | %45
 (C,, C,2 C,,) | (!>!_B,,, C,,2 B,,, | !>!A,,, E,,2 A,,, | _B,,, C,,2 B,,, | A,,, E,,2 A,,,) | x4 | %51
 x4 | x4 | x4 | x4 | x4 | x4 | x4 | x4 | x4 | x4 | x4 | x4 | x4 | x4 | x4 | x4 | x4 | x4 | %69
 (E,2 G,2 | F,) (!>!E,2 G,) | (F,3 F,,) | (E,,2 F,,2 | G,,2 A,,2) | G,B,, F,G,, | (C,, G,,2 G,) | %76
 (C,, G,,2 G,) | (C,, G,,2 G,) | x4 | x4 | x4 |] %81

